X:22
T:Estampie
T:Trotto
O:France
R:Estampie
C:XIVe siècle
Z:Transcrit et/ou corrigé par B@D - 2005-03-04
Z:Pour toute observation mailto:-@-
M:6/8
L:1/8
Q:3/8=126
K:G
A2A eAe | e2d cBc | AGA BAB | G3 A2B | cBA B2F | B3 z2z | A2A eAe | e2d cBc |
AGA BAB | G3 A2B | d2e d2c | BAB GA2 !fine! || (d/c/B)c d2e  | (d/c/B)c AGA | (c/B/A)B c2d | (d/c/B)c AGA | 
(d/c/B)c d2e | (d/c/B)c AGA | a2g f3 | (a/g/f)g e2A | eAe e3 | A2A eAe | e2d cBc | AGA BAB | 
G3 A2B | cBA B2F | B3z2z | A2A eAe | e2d cBc | AGA BAB | G3A2B | d2e d2c | BAB GA2 |
(a2g/f/ e2f/g/ | a2g/f/ e3) |  a2g f3 | (a/g/f)g e2A | eAe e3 !D.C.! |]





%%header "$P0	 $IR 	$P1"
%%footer $D - Éditions Galouvielle - 2009 - À usage librement privé dans le cadre familial
%%newpage
